X: 15729
T: Golden Stud, The
R: reel
M: 4/4
K: Eminor
|:EFGE FGAF|GABG ABcA|BAGB AGFA|GEFD EDB,D|
EFGE FGAF|GABG ABcA|BAGB AGFA|GEFD E4:|
|:c2cB cBAc|B2Bc BAGB|A2AB AGFA|GEFD EDB,D|
c2cB cBAc|B2Bc BAGB|A2AB AGFA|GEFD E4:|

